public/images/design-pub-logo.svg

<svg width="173" height="41" viewBox="0 0 173 41" fill="none" xmlns="http://www.w3.org/2000/svg">
<path d="M15.6783 15.4241C18.3256 16.6591 21.0599 17.2722 23.3701 17.1531C23.3846 17.1531 23.3962 17.1531 23.4107 17.1502L23.5764 0.72934C23.5822 0.148175 22.9342 -0.200524 22.4518 0.124928L8.64044 9.441C9.75918 11.5739 12.3454 13.8695 15.6783 15.4241Z" fill="#52C248"/>
<path d="M22.7947 18.7281C20.3858 18.7281 17.6514 18.0684 15.0187 16.8393C11.3864 15.1452 8.65497 12.7304 7.34154 10.3186L0.318164 15.058C-0.231036 15.427 -0.0305343 16.2814 0.623276 16.3685L12.418 17.9725C13.1125 18.0655 13.7489 18.4084 14.2109 18.9373L22.0479 27.8988C22.4838 28.3957 23.3032 28.0935 23.3119 27.431L23.3991 18.7135C23.2015 18.7222 23.001 18.7281 22.7976 18.7281H22.7947Z" fill="#52C248"/>
<path d="M22.7948 17.4843C20.3858 17.4843 17.6515 16.8247 15.0188 15.5955C8.82357 12.7071 5.24069 7.71781 6.86505 4.23663C8.4894 0.755457 14.612 0.293431 20.8072 3.18473C22.8355 4.12912 24.6719 5.35538 26.119 6.72983C26.4329 7.02622 26.4445 7.52021 26.1481 7.83404C25.8517 8.14787 25.3577 8.1595 25.0439 7.8631C23.7159 6.60488 22.0218 5.47452 20.1447 4.59986C14.9229 2.16478 9.489 2.30136 8.27728 4.89626C7.06555 7.49406 10.4537 11.7453 15.6755 14.1804C18.3227 15.4153 21.0571 16.0285 23.3672 15.9093C25.503 15.7989 26.985 15.0783 27.5429 13.884C28.1241 12.6374 27.5603 11.2164 26.9879 10.243C26.7699 9.87103 26.892 9.39157 27.2639 9.17363C27.6359 8.95569 28.1153 9.07774 28.3333 9.44968C29.4142 11.2833 29.6351 13.0936 28.958 14.5436C28.1444 16.2871 26.1888 17.3245 23.4486 17.4698C23.2335 17.4814 23.0127 17.4872 22.789 17.4872L22.7948 17.4843Z" fill="#FEF2FF"/>
<path d="M41.5875 29.2746V0.412317H49.7102C53.8334 0.412317 55.895 2.47391 55.895 6.59709V23.0898C55.895 27.213 53.8334 29.2746 49.7102 29.2746H41.5875ZM47.36 5.36013V24.3268H48.5145C49.5865 24.3268 50.1225 23.7907 50.1225 22.7187V6.96817C50.1225 5.89614 49.5865 5.36013 48.5145 5.36013H47.36Z" fill="white"/>
<path d="M70.5129 19.915H63.0087V23.9144C63.0087 24.5192 63.3111 24.8215 63.9158 24.8215H64.4106C65.0153 24.8215 65.3177 24.5192 65.3177 23.9144V21.7292H70.5129V24.4917C70.5129 27.8452 68.8361 29.522 65.4826 29.522H62.6789C59.3253 29.522 57.6486 27.8452 57.6486 24.4917V10.9677C57.6486 7.61414 59.3253 5.93738 62.6789 5.93738H65.4826C68.8361 5.93738 70.5129 7.61414 70.5129 10.9677V19.915ZM63.0087 11.4624V15.7093H65.2352V11.4624C65.2352 10.8577 64.9329 10.5553 64.3281 10.5553H63.9158C63.3111 10.5553 63.0087 10.8577 63.0087 11.4624Z" fill="white"/>
<path d="M79.4834 14.4311V11.4624C79.4834 10.8577 79.181 10.5553 78.5763 10.5553H78.2052C77.6005 10.5553 77.2981 10.8577 77.2981 11.4624V13.0705C77.2981 13.6202 77.5592 14.06 78.0815 14.3899L82.2872 16.9875C83.1668 17.5647 83.799 18.1557 84.1838 18.7605C84.5686 19.3377 84.7611 20.1349 84.7611 21.1519V24.4917C84.7611 27.8452 83.0843 29.522 79.7308 29.522H77.1332C73.7797 29.522 72.1029 27.8452 72.1029 24.4917V20.8633H77.3393V23.9969C77.3393 24.6016 77.6417 24.904 78.2464 24.904H78.7C79.3047 24.904 79.6071 24.6016 79.6071 23.9969V22.2652C79.6071 21.7154 79.346 21.2756 78.8237 20.9457L74.618 18.3481C73.7384 17.7709 73.1062 17.1937 72.7214 16.6164C72.3366 16.0117 72.1441 15.2008 72.1441 14.1837V10.9677C72.1441 7.61414 73.8209 5.93738 77.1744 5.93738H79.6896C83.0431 5.93738 84.7198 7.61414 84.7198 10.9677V14.4311H79.4834Z" fill="white"/>
<path d="M86.3588 4.74166V0H91.9663V4.74166H86.3588ZM86.4413 29.2746V6.18477H91.8839V29.2746H86.4413Z" fill="white"/>
<path d="M106.922 6.18477V29.1509C106.922 32.367 105.301 33.975 102.057 33.975H98.0577C95.144 33.975 93.6871 32.5319 93.6871 29.6457V28.2025H98.5524V29.0272C98.5524 29.6319 98.8548 29.9343 99.4595 29.9343H100.655C101.26 29.9343 101.562 29.6319 101.562 29.0272V25.5637C100.215 26.6357 98.8686 27.1717 97.5217 27.1717H97.4392C96.2297 27.1717 95.2951 26.8281 94.6354 26.141C93.9757 25.4538 93.6459 24.4642 93.6459 23.1723V9.93686C93.6459 8.64493 93.9757 7.65537 94.6354 6.96817C95.2951 6.28097 96.2297 5.93738 97.4392 5.93738H97.5217C98.8686 5.93738 100.215 6.47339 101.562 7.54542V6.18477H106.922ZM101.48 22.3476V10.9677C101.04 10.8027 100.6 10.7203 100.16 10.7203C99.4458 10.7203 99.0885 11.0226 99.0885 11.6274V21.6879C99.0885 22.2927 99.4458 22.595 100.16 22.595C100.6 22.595 101.04 22.5126 101.48 22.3476Z" fill="white"/>
<path d="M108.747 29.2746V6.18477H114.107V7.71034C115.482 6.52836 116.801 5.93738 118.066 5.93738H118.478C120.787 5.93738 121.941 7.18807 121.941 9.68947V29.2746H116.499V11.6274C116.499 11.0226 116.142 10.7203 115.427 10.7203C115.042 10.7203 114.63 10.8027 114.19 10.9677V29.2746H108.747Z" fill="white"/>
<path d="M135.219 19.2552V40.6445H129.447V0.412317H137.899C141.473 0.412317 143.259 2.19903 143.259 5.77245V13.8951C143.259 17.4685 141.473 19.2552 137.899 19.2552H135.219ZM137.487 6.39093C137.487 5.70373 137.143 5.36013 136.456 5.36013H135.219V14.3074H136.456C137.143 14.3074 137.487 13.9638 137.487 13.2766V6.39093Z" fill="white"/>
<path d="M157.898 6.18477V29.2746H152.537V27.749C151.163 28.931 149.844 29.522 148.579 29.522H148.167C145.858 29.522 144.703 28.2713 144.703 25.7699V6.18477H150.146V23.832C150.146 24.4367 150.503 24.7391 151.218 24.7391C151.603 24.7391 152.015 24.6566 152.455 24.4917V6.18477H157.898Z" fill="white"/>
<path d="M159.723 29.2746V0H165.166V7.79281C166.54 6.55585 167.86 5.93738 169.124 5.93738H169.207C170.416 5.93738 171.351 6.28097 172.01 6.96817C172.67 7.65537 173 8.64493 173 9.93686V25.5225C173 26.8144 172.67 27.804 172.01 28.4912C171.351 29.1784 170.416 29.522 169.207 29.522H169.124C167.777 29.522 166.43 28.9859 165.083 27.9139V29.2746H159.723ZM165.166 10.9677V24.4917C165.606 24.6566 166.046 24.7391 166.485 24.7391C167.2 24.7391 167.557 24.4367 167.557 23.832V11.6274C167.557 11.0226 167.2 10.7203 166.485 10.7203C166.046 10.7203 165.606 10.8027 165.166 10.9677Z" fill="white"/>
</svg>

<?xml version="1.0" encoding="utf-8"?>
<!-- Generator: Adobe Illustrator 27.7.0, SVG Export Plug-In . SVG Version: 6.00 Build 0)  -->
<svg version="1.1" id="Layer_1" xmlns="http://www.w3.org/2000/svg" xmlns:xlink="http://www.w3.org/1999/xlink" x="0px" y="0px"
	 viewBox="0 0 173 34" style="enable-background:new 0 0 173 34;" xml:space="preserve">
<style type="text/css">
	.st0{fill:#52C248;}
	.st1{fill:#FFFFFF;}
</style>
<path class="st0" d="M15.7,15.4c2.6,1.2,5.4,1.8,7.7,1.7c0,0,0,0,0,0l0.2-16.4c0-0.6-0.6-0.9-1.1-0.6L8.6,9.4
	C9.8,11.6,12.3,13.9,15.7,15.4z"/>
<path class="st0" d="M22.8,18.7c-2.4,0-5.1-0.7-7.8-1.9c-3.6-1.7-6.4-4.1-7.7-6.5l-7,4.7c-0.5,0.4-0.3,1.2,0.3,1.3L12.4,18
	c0.7,0.1,1.3,0.4,1.8,1l7.8,9c0.4,0.5,1.3,0.2,1.3-0.5l0.1-8.7C23.2,18.7,23,18.7,22.8,18.7L22.8,18.7z"/>
<path class="st1" d="M22.8,17.5c-2.4,0-5.1-0.7-7.8-1.9C8.8,12.7,5.2,7.7,6.9,4.2c1.6-3.5,7.7-3.9,13.9-1.1c2,0.9,3.9,2.2,5.3,3.5
	c0.3,0.3,0.3,0.8,0,1.1c-0.3,0.3-0.8,0.3-1.1,0c-1.3-1.3-3-2.4-4.9-3.3C14.9,2.2,9.5,2.3,8.3,4.9c-1.2,2.6,2.2,6.8,7.4,9.3
	c2.6,1.2,5.4,1.8,7.7,1.7c2.1-0.1,3.6-0.8,4.2-2c0.6-1.2,0-2.7-0.6-3.6c-0.2-0.4-0.1-0.9,0.3-1.1c0.4-0.2,0.9-0.1,1.1,0.3
	c1.1,1.8,1.3,3.6,0.6,5.1c-0.8,1.7-2.8,2.8-5.5,2.9C23.2,17.5,23,17.5,22.8,17.5L22.8,17.5z"/>
<path class="st1" d="M41.6,29.3V0.4h8.1c4.1,0,6.2,2.1,6.2,6.2v16.5c0,4.1-2.1,6.2-6.2,6.2H41.6z M47.4,5.4v19h1.2
	c1.1,0,1.6-0.5,1.6-1.6V7c0-1.1-0.5-1.6-1.6-1.6H47.4z"/>
<path class="st1" d="M70.5,19.9H63v4c0,0.6,0.3,0.9,0.9,0.9h0.5c0.6,0,0.9-0.3,0.9-0.9v-2.2h5.2v2.8c0,3.4-1.7,5-5,5h-2.8
	c-3.4,0-5-1.7-5-5V11c0-3.4,1.7-5,5-5h2.8c3.4,0,5,1.7,5,5V19.9z M63,11.5v4.2h2.2v-4.2c0-0.6-0.3-0.9-0.9-0.9h-0.4
	C63.3,10.6,63,10.9,63,11.5z"/>
<path class="st1" d="M79.5,14.4v-3c0-0.6-0.3-0.9-0.9-0.9h-0.4c-0.6,0-0.9,0.3-0.9,0.9v1.6c0,0.5,0.3,1,0.8,1.3l4.2,2.6
	c0.9,0.6,1.5,1.2,1.9,1.8c0.4,0.6,0.6,1.4,0.6,2.4v3.3c0,3.4-1.7,5-5,5h-2.6c-3.4,0-5-1.7-5-5v-3.6h5.2V24c0,0.6,0.3,0.9,0.9,0.9
	h0.5c0.6,0,0.9-0.3,0.9-0.9v-1.7c0-0.5-0.3-1-0.8-1.3l-4.2-2.6c-0.9-0.6-1.5-1.2-1.9-1.7c-0.4-0.6-0.6-1.4-0.6-2.4V11
	c0-3.4,1.7-5,5-5h2.5c3.4,0,5,1.7,5,5v3.5H79.5z"/>
<path class="st1" d="M86.4,4.7V0H92v4.7H86.4z M86.4,29.3V6.2h5.4v23.1H86.4z"/>
<path class="st1" d="M106.9,6.2v23c0,3.2-1.6,4.8-4.9,4.8h-4c-2.9,0-4.4-1.4-4.4-4.3v-1.4h4.9V29c0,0.6,0.3,0.9,0.9,0.9h1.2
	c0.6,0,0.9-0.3,0.9-0.9v-3.5c-1.3,1.1-2.7,1.6-4,1.6h-0.1c-1.2,0-2.1-0.3-2.8-1c-0.7-0.7-1-1.7-1-3V9.9c0-1.3,0.3-2.3,1-3
	s1.6-1,2.8-1h0.1c1.3,0,2.7,0.5,4,1.6V6.2H106.9z M101.5,22.3V11c-0.4-0.2-0.9-0.2-1.3-0.2c-0.7,0-1.1,0.3-1.1,0.9v10.1
	c0,0.6,0.4,0.9,1.1,0.9C100.6,22.6,101,22.5,101.5,22.3z"/>
<path class="st1" d="M108.7,29.3V6.2h5.4v1.5c1.4-1.2,2.7-1.8,4-1.8h0.4c2.3,0,3.5,1.3,3.5,3.8v19.6h-5.4V11.6
	c0-0.6-0.4-0.9-1.1-0.9c-0.4,0-0.8,0.1-1.2,0.2v18.3H108.7z"/>
<path class="st1" d="M135.2,19.3v10.1h-5.8V0.4h8.5c3.6,0,5.4,1.8,5.4,5.4v8.1c0,3.6-1.8,5.4-5.4,5.4H135.2z M137.5,6.4
	c0-0.7-0.3-1-1-1h-1.2v8.9h1.2c0.7,0,1-0.3,1-1V6.4z"/>
<path class="st1" d="M157.9,6.2v23.1h-5.4v-1.5c-1.4,1.2-2.7,1.8-4,1.8h-0.4c-2.3,0-3.5-1.3-3.5-3.8V6.2h5.4v17.6
	c0,0.6,0.4,0.9,1.1,0.9c0.4,0,0.8-0.1,1.2-0.2V6.2H157.9z"/>
<path class="st1" d="M159.7,29.3V0h5.4v7.8c1.4-1.2,2.7-1.9,4-1.9h0.1c1.2,0,2.1,0.3,2.8,1c0.7,0.7,1,1.7,1,3v15.6
	c0,1.3-0.3,2.3-1,3c-0.7,0.7-1.6,1-2.8,1h-0.1c-1.3,0-2.7-0.5-4-1.6v1.4H159.7z M165.2,11v13.5c0.4,0.2,0.9,0.2,1.3,0.2
	c0.7,0,1.1-0.3,1.1-0.9V11.6c0-0.6-0.4-0.9-1.1-0.9C166,10.7,165.6,10.8,165.2,11z"/>
<path class="st0" d="M15.7,14.2c2.6,1.2,5.4,1.8,7.7,1.7c0,0,0,0,0.1,0l0.2-15.2c0-0.6-0.6-0.9-1.1-0.6l-13.3,9
	C10.5,10.9,12.8,12.8,15.7,14.2z"/>
</svg>
